packages/axiom-materials/src/icon_svgs/unlock.svg

<svg height="16" viewBox="0 0 16 16" width="16" xmlns="http://www.w3.org/2000/svg"><path d="m6.5 7v-3c0-.827.673-1.5 1.5-1.5s1.5.673 1.5 1.5v1h1.5v-1c0-1.657-1.343-3-3-3s-3 1.343-3 3v3h-1.5v7h9v-7z" fill-rule="evenodd"/></svg>

<?xml version="1.0" encoding="UTF-8"?>
<svg width="16px" height="16px" viewBox="0 0 16 16" version="1.1" xmlns="http://www.w3.org/2000/svg" xmlns:xlink="http://www.w3.org/1999/xlink">
    <!-- Generator: sketchtool 43.2 (39069) - http://www.bohemiancoding.com/sketch -->
    <title>unlock</title>
    <desc>Created with sketchtool.</desc>
    <defs></defs>
    <g id="Page-1" stroke="none" stroke-width="1" fill="none" fill-rule="evenodd">
        <g id="unlock" fill="#000000">
            <path d="M6.5,7 L6.5,4 C6.5,3.173 7.173,2.5 8,2.5 C8.827,2.5 9.5,3.173 9.5,4 L9.5,5 L11,5 L11,4 C11,2.343 9.657,1 8,1 C6.343,1 5,2.343 5,4 L5,7 L3.5,7 L3.5,14 L12.5,14 L12.5,7 L6.5,7 Z" id="Mask"></path>
        </g>
    </g>
</svg>
